packages/ui/src/icons/search.svg

<svg fill="none" height="24" viewBox="0 0 24 24" width="24" xmlns="http://www.w3.org/2000/svg"><path d="m15.5 14h-.79l-.28-.27c.98-1.14 1.57-2.62 1.57-4.23 0-3.59-2.91-6.5-6.5-6.5s-6.5 2.91-6.5 6.5 2.91 6.5 6.5 6.5c1.61 0 3.09-.59 4.23-1.57l.27.28v.79l5 4.99 1.49-1.49zm-6 0c-2.49 0-4.5-2.01-4.5-4.5s2.01-4.5 4.5-4.5 4.5 2.01 4.5 4.5-2.01 4.5-4.5 4.5z" fill="#000"/></svg>

<svg width="24" height="24" viewBox="0 0 24 24" fill="none" xmlns="http://www.w3.org/2000/svg">
<path d="M15.5 14H14.71L14.43 13.73C15.41 12.59 16 11.11 16 9.5C16 5.91 13.09 3 9.5 3C5.91 3 3 5.91 3 9.5C3 13.09 5.91 16 9.5 16C11.11 16 12.59 15.41 13.73 14.43L14 14.71V15.5L19 20.49L20.49 19L15.5 14V14ZM9.5 14C7.01 14 5 11.99 5 9.5C5 7.01 7.01 5 9.5 5C11.99 5 14 7.01 14 9.5C14 11.99 11.99 14 9.5 14Z" fill="black"/>
</svg>
